!!!OTL: 1262. Uraltes Ansingelied (Chanson des Beignets) am Johannisabend.
!!!ARE: Europa, Mitteleuropa, Deutschland; France, Elsass
!!!SCT: E1262
!!!TXL: @@GSW
!!!YEM: Copyright 1995, estate of Helmut Schaffrath.
**kern	**text
*ICvox	*
*M2/4	*
*k[f#]	*
*G:	*
=1	=1
!LO:TX:a:t=Aus dem Elſaß. Weckerlin II. S. 78.	!
{8.g	Vei-
16a	-le,
8b	Ro-
8cc	-ſe,
=2	=2
8.dd	Bliä-
16ee	-me-
8dd}	-lein!
{8b	Mer
=3	=3
8.cc	ſin-
16b	-gen
8cc	um
8dd	die
=4	=4
8.b/	Kiä-
16a	-che-
8b/	-lein.
8r}	.
=5	=5
{8.g	Vei-
16a	-le,
8b	Ro-
8cc	-ſe,
=6	=6
8.dd	Bliä-
16ee	-me-
8dd}	-lein!
{8b	Mer
=7	=7
8.cc	ſin-
16b	-gen
8cc	um
8dd	die
=8	=8
8.b/	Kiä-
16a	-che-
8b/}	-lein.
{8d	Die
=9	=9
8g	Kiäch-
8g	-le
8a	ſin
8a	ge-
=10	=10
(8bL	-ba-
8ddJ)	.
8dd}	-che,
{8d	mer
=11	=11
8g	her-
8g	-re
8a	d'Pfanne
8a	.
=12	=12
(8bL	kra-
8ddJ)	.
4dd}	-che.
=13	=13
{8b	D'Kiäch-
8dd	-le
4g	rus!
=14	=14
8b	d'Kiäch-
8dd	-le
4g}	rus!
=15	=15
{8a	Glick
8a	und
8b	Heil
8b	ins
=16	=16
8dd	Her-
8dd	-re-
4g}	-Hus!
==	==
!!!AGN: Ansinge -, Brauchtums - Lied, Kirchen - Fest, Johannis - Tag
!!!ONB: ESAC (Essen Associative Code) Database: ERK3
!!!AMT: simple duple
!!!AIN: vox
!!!EED: Helmut Schaffrath
!!!EEV: 1.0
!!!GTL: Ansingelieder an Volks- und Kirchenfesten.
!!!URL-scan: https://rosdok.uni-rostock.de/mcrviewer/recordIdentifier/rosdok_ppn745177999/iview2/phys_0159.iview2?x=-218.20720142199457&y=1722.336223927443&scale=0.5870222003877485&rotation=0&layout=singlePageLayout
!!!ENC: Anna Maria Matuszewska
!!!EEV: 2024/12/27
*-	*-
